SVG-Icons/Technical/Grafana/grafana-icon-metrics-yellow-circle-control-costs.svg

<svg width="40" height="40" viewBox="0 0 40 40" fill="none" xmlns="http://www.w3.org/2000/svg">
<rect width="40" height="40" rx="20" fill="#FDD9BE"/>
<path d="M18.5 18.5H9.5C8.94772 18.5 8.5 18.0523 8.5 17.5V9.5C8.5 8.94772 8.94772 8.5 9.5 8.5H25.5C26.0523 8.5 26.5 8.94772 26.5 9.5V14.5" stroke="#EC6D13" stroke-width="1.5" stroke-linecap="round" stroke-linejoin="round"/>
<path d="M19.5 11.5H16.346C15.9223 11.5038 15.5673 11.8215 15.5167 12.2421C15.466 12.6628 15.7354 13.0557 16.146 13.16L18.87 13.84C19.2806 13.9443 19.55 14.3372 19.4993 14.7579C19.4487 15.1785 19.0937 15.4962 18.67 15.5H15.5" stroke="#EC6D13" stroke-width="1.5" stroke-linecap="round" stroke-linejoin="round"/>
<path d="M17.5039 11.5V10.5" stroke="#EC6D13" stroke-width="1.5" stroke-linecap="round" stroke-linejoin="round"/>
<path d="M17.5039 16.5V15.5" stroke="#EC6D13" stroke-width="1.5" stroke-linecap="round" stroke-linejoin="round"/>
<path d="M22.5039 23.5H23.5039" stroke="#EC6D13" stroke-width="1.5" stroke-linecap="round" stroke-linejoin="round"/>
<path d="M25.5039 23.5H26.5039" stroke="#EC6D13" stroke-width="1.5" stroke-linecap="round" stroke-linejoin="round"/>
<path d="M28.5039 23.5H29.5039" stroke="#EC6D13" stroke-width="1.5" stroke-linecap="round" stroke-linejoin="round"/>
<path d="M22.5039 25.5H23.5039" stroke="#EC6D13" stroke-width="1.5" stroke-linecap="round" stroke-linejoin="round"/>
<path d="M25.5039 25.5H26.5039" stroke="#EC6D13" stroke-width="1.5" stroke-linecap="round" stroke-linejoin="round"/>
<path d="M28.5039 25.5H29.5039" stroke="#EC6D13" stroke-width="1.5" stroke-linecap="round" stroke-linejoin="round"/>
<path d="M22.5039 27.5H23.5039" stroke="#EC6D13" stroke-width="1.5" stroke-linecap="round" stroke-linejoin="round"/>
<path d="M25.5039 27.5H26.5039" stroke="#EC6D13" stroke-width="1.5" stroke-linecap="round" stroke-linejoin="round"/>
<path d="M28.5039 27.5H29.5039" stroke="#EC6D13" stroke-width="1.5" stroke-linecap="round" stroke-linejoin="round"/>
<path d="M22.5039 29.5H23.5039" stroke="#EC6D13" stroke-width="1.5" stroke-linecap="round" stroke-linejoin="round"/>
<path d="M25.5039 29.5H26.5039" stroke="#EC6D13" stroke-width="1.5" stroke-linecap="round" stroke-linejoin="round"/>
<path d="M28.5039 29.5H29.5039" stroke="#EC6D13" stroke-width="1.5" stroke-linecap="round" stroke-linejoin="round"/>
<path fill-rule="evenodd" clip-rule="evenodd" d="M20.5039 18.5C20.5039 17.3954 21.3993 16.5 22.5039 16.5H29.5039C30.6085 16.5 31.5039 17.3954 31.5039 18.5V29.5C31.5039 30.6046 30.6085 31.5 29.5039 31.5H22.5039C21.3993 31.5 20.5039 30.6046 20.5039 29.5V18.5Z" stroke="#EC6D13" stroke-width="1.5" stroke-linecap="round" stroke-linejoin="round"/>
<path d="M20.5039 21.5H31.5039" stroke="#EC6D13" stroke-width="1.5" stroke-linecap="round" stroke-linejoin="round"/>
<path d="M9.50391 21.5H18.5039" stroke="#EC6D13" stroke-width="1.5" stroke-linecap="round" stroke-linejoin="round"/>
<path d="M10.5039 24.5H18.5039" stroke="#EC6D13" stroke-width="1.5" stroke-linecap="round" stroke-linejoin="round"/>
</svg>

<svg xmlns="http://www.w3.org/2000/svg" fill="none" viewBox="0 0 40 40"><rect width="40" height="40" fill="#FDD9BE" rx="20"/><path stroke="#EC6D13" stroke-linecap="round" stroke-linejoin="round" stroke-width="1.5" d="M18.5 18.5h-9a1 1 0 0 1-1-1v-8a1 1 0 0 1 1-1h16a1 1 0 0 1 1 1v5"/><path stroke="#EC6D13" stroke-linecap="round" stroke-linejoin="round" stroke-width="1.5" d="M19.5 11.5h-3.154a.843.843 0 0 0-.2 1.66l2.724.68a.843.843 0 0 1-.2 1.66H15.5M17.504 11.5v-1M17.504 16.5v-1M22.504 23.5h1M25.504 23.5h1M28.504 23.5h1M22.504 25.5h1M25.504 25.5h1M28.504 25.5h1M22.504 27.5h1M25.504 27.5h1M28.504 27.5h1M22.504 29.5h1M25.504 29.5h1M28.504 29.5h1"/><path stroke="#EC6D13" stroke-linecap="round" stroke-linejoin="round" stroke-width="1.5" d="M20.504 18.5a2 2 0 0 1 2-2h7a2 2 0 0 1 2 2v11a2 2 0 0 1-2 2h-7a2 2 0 0 1-2-2v-11Z" clip-rule="evenodd"/><path stroke="#EC6D13" stroke-linecap="round" stroke-linejoin="round" stroke-width="1.5" d="M20.504 21.5h11M9.504 21.5h9M10.504 24.5h8"/></svg>
